images/logomark.svg

<?xml version="1.0" encoding="UTF-8"?>
<svg width="819px" height="510px" viewBox="0 0 819 510" version="1.1" xmlns="http://www.w3.org/2000/svg" xmlns:xlink="http://www.w3.org/1999/xlink">
    <!-- Generator: Sketch 45.2 (43514) - http://www.bohemiancoding.com/sketch -->
    <title>mark</title>
    <desc>Created with Sketch.</desc>
    <defs>
        <linearGradient x1="0%" y1="49.9999835%" x2="100.000037%" y2="49.9999835%" id="linearGradient-1">
            <stop stop-color="#7F7CBB" offset="0%"></stop>
            <stop stop-color="#7FCEEA" offset="47.13%"></stop>
            <stop stop-color="#89CDA8" offset="100%"></stop>
        </linearGradient>
    </defs>
    <g id="Round-3" stroke="none" stroke-width="1" fill="none" fill-rule="evenodd">
        <g id="Home" fill-rule="nonzero" fill="url(#linearGradient-1)">
            <path d="M105.155807,510 C-131.216575,510 -320.136787,326.840007 -328.825454,91.5458189 L-329,91.5458189 L-329,73.9654346 C-323.580492,-164.585805 -133.425582,-351 105.155807,-351 C283.248449,-351 441.540143,-245.023295 508.451322,-81.0066721 C511.661823,-71.050296 514.524662,-64.1771479 529.621454,-47.3504732 C598.870404,29.7174067 689.567042,46.2406028 718.36569,49.6130617 L718.36569,-320.670667 C718.36569,-336.65957 732.345101,-349.928564 748.879751,-349.928564 L781.891822,-349.928564 L817.170129,-306.041006 L819,82.8503747 L819,459.703773 L781.890392,509.103812 L748.87832,509.103812 C732.343671,509.103812 718.364259,495.602579 718.364259,479.730508 L718.364259,109.329947 C689.565612,112.757972 598.929063,129.341009 529.620023,206.235066 C514.450266,223.236989 511.660392,230.053146 508.681666,239.1689 C441.467177,403.906462 283.24988,510 105.155807,510 Z M105.911947,-246 C-73.0803557,-246 -220.595611,-99.8896513 -223,79.6578881 C-220.650609,258.905089 -73.0803557,405 105.911947,405 C285.622041,405 433.722529,258.961227 436,79.4150913 C433.722529,-99.8896513 285.565633,-246 105.911947,-246 Z" id="mark"></path>
        </g>
    </g>
</svg>

<svg xmlns="http://www.w3.org/2000/svg" width="819" height="510"><title>mark</title><desc>Created with Sketch.</desc><defs><linearGradient id="a" x1="0%" y1="50%" y2="50%"><stop stop-color="#7F7CBB" offset="0%"/><stop stop-color="#7FCEEA" offset="47.13%"/><stop stop-color="#89CDA8" offset="100%"/></linearGradient></defs><g fill="none"><g fill="url(#a)" fill-rule="nonzero"><path d="M105.16 510c-236.38 0-425.3-183.16-434-418.45h-.16V73.97C-323.58-164.6-133.43-351 105.16-351c178.1 0 336.38 105.98 403.3 270 3.2 9.95 6.06 16.82 21.16 33.65 69.25 77.07 159.95 93.6 188.75 96.96v-370.27c0-16 13.98-29.26 30.5-29.26h33.02l35.27 43.9L819 82.84V459.7l-37.1 49.4h-33.02c-16.54 0-30.52-13.5-30.52-29.37v-370.4c-28.8 3.43-119.43 20-188.74 96.9-15.17 17-17.96 23.82-20.94 32.94C441.48 403.9 283.25 510 105.16 510zm.75-756C-73.07-246-220.6-99.9-223 79.66-220.65 258.9-73.08 405 105.9 405 285.63 405 433.73 258.96 436 79.42 433.72-99.88 285.57-246 105.9-246z"/></g></g></svg>
